**kern	**kern	**dynam
*part1	*part1	*part1
*staff2	*staff1	*
*I"Piano	*	*
*clefF4	*clefG2	*
*k[f#]	*k[f#]	*
=1	=1	=1
4r	4r	<
4D 4E	4G#X 4B	.
4D 4E	4G# 4B	.
=	=	=
4r	4r	.
4C 4E	4A	.
4C 4E	4A	.
=	=	=
4r	4r	[
4FF# 4C#X	4F# 4A#X 4c#X	.
4FF# 4C#	4F# 4A# 4c#	.
=	=	=
4r	4r	.
4BB	4F# 4B 4d#X	.
4BB	4F# 4B 4d#	.
=	=	=
!	!LO:TX:b:i:t=cresc.	!
4r	4r	.
4EE 4E	4G 4B 4e	.
4EE 4E	4G 4B 4e	.
=	=	=
4r	4r	.
4AA 4E	4A 4c 4e	.
4AA 4E	4A 4c 4e	.
=	=	=
!	!LO:TX:b:i:t=a tempo	!
[2.DD [2.D	4B 4d 4g	f
.	(8GL 8B 8d	.
.	8g	.
.	8G 8B 8d	.
.	8gJ)	.
=	=	=
2.DD_ 2.D_	(8GL 8B 8d	.
.	8g	.
.	8G 8B 8d	.
.	8gJ	.
.	8GL 8B 8d	.
.	8gJ)	.
=	=	=
*-	*-	*-
!!!system-decoration: {(s1,s2)}
